src/img/projects/ios.svg

<?xml version="1.0" encoding="UTF-8"?>
<svg width="90px" height="90px" viewBox="0 0 90 90" version="1.1" xmlns="http://www.w3.org/2000/svg" xmlns:xlink="http://www.w3.org/1999/xlink">
    <!-- Generator: Sketch 41.2 (35397) - http://www.bohemiancoding.com/sketch -->
    <title>community/card/logo/ios</title>
    <desc>Created with Sketch.</desc>
    <defs></defs>
    <g id="Symbols" stroke="none" stroke-width="1" fill="none" fill-rule="evenodd">
        <g id="community/card/logo/ios" fill="#FFFFFF">
            <path d="M51.300601,28.1574385 C52.8108585,26.3232124 53.830422,23.7727567 53.5496031,21.2306388 C51.3739854,21.3182077 48.7406957,22.6849265 47.1785746,24.5191526 C45.780106,26.1402303 44.5533564,28.7370445 44.8857905,31.2274065 C47.3121377,31.4160251 49.7900951,29.9889684 51.300601,28.1574385 Z M56.525757,44.6518066 C56.4766863,39.1627705 60.9966409,36.5275958 61.2011021,36.3991174 C58.6576053,32.6677756 54.6992374,32.1565954 53.2870923,32.0964566 C49.9202986,31.7547586 46.7143477,34.0837719 45.0077786,34.0837719 C43.3012095,34.0837719 40.6622975,32.1456611 37.8707212,32.2003328 C34.1958727,32.2550044 30.8127221,34.3407288 28.9207749,37.6374308 C25.1068928,44.2718385 27.9475398,54.1045391 31.6605544,59.489699 C33.4788956,62.1221402 35.6434577,65.0880785 38.489557,64.9787351 C41.2320626,64.8693918 42.2679991,63.2019057 45.5775437,63.2019057 C48.8870882,63.2019057 49.8194311,64.9787351 52.7173272,64.9267971 C55.664294,64.8693918 57.534432,62.2369507 59.3391425,59.5963088 C61.4219201,56.5401622 62.2833831,53.5824246 62.3324538,53.4266103 C62.2670262,53.3992745 56.5857323,51.2151411 56.525757,44.6518066 Z" id="Combined-Shape"></path>
        </g>
    </g>
</svg>

<svg width="90" height="90" viewBox="0 0 90 90" xmlns="http://www.w3.org/2000/svg"><title>community/card/logo/ios</title><path d="M51.3 28.157c1.51-1.834 2.53-4.384 2.25-6.926-2.176.087-4.81 1.454-6.371 3.288-1.399 1.621-2.626 4.218-2.293 6.708 2.426.189 4.904-1.238 6.415-3.07zm5.226 16.495c-.05-5.49 4.47-8.124 4.675-8.253-2.543-3.731-6.502-4.242-7.914-4.303-3.367-.341-6.573 1.988-8.28 1.988-1.706 0-4.345-1.938-7.136-1.884-3.675.055-7.058 2.14-8.95 5.437-3.814 6.635-.973 16.468 2.74 21.853 1.818 2.632 3.982 5.598 6.829 5.489 2.742-.11 3.778-1.777 7.088-1.777s4.241 1.777 7.14 1.725c2.946-.058 4.816-2.69 6.621-5.33 2.083-3.057 2.944-6.015 2.993-6.17-.065-.028-5.746-2.212-5.806-8.775z" fill="#FFF" fill-rule="evenodd"/></svg>
